icosahedron.svg

<?xml version="1.0" encoding="UTF-8" standalone="no"?>
<!-- Created with Inkscape (http://www.inkscape.org/) -->

<svg
   xmlns:dc="http://purl.org/dc/elements/1.1/"
   xmlns:cc="http://creativecommons.org/ns#"
   xmlns:rdf="http://www.w3.org/1999/02/22-rdf-syntax-ns#"
   xmlns:svg="http://www.w3.org/2000/svg"
   xmlns="http://www.w3.org/2000/svg"
   xmlns:sodipodi="http://sodipodi.sourceforge.net/DTD/sodipodi-0.dtd"
   xmlns:inkscape="http://www.inkscape.org/namespaces/inkscape"
   width="248.03149"
   height="106.29921"
   id="svg2"
   sodipodi:version="0.32"
   inkscape:version="0.48.3.1 r9886"
   sodipodi:docname="icosahedron.svg"
   inkscape:output_extension="org.inkscape.output.svg.inkscape"
   sodipodi:modified="true"
   version="1.0">
  <defs
     id="defs4" />
  <sodipodi:namedview
     id="base"
     pagecolor="#ffffff"
     bordercolor="#666666"
     borderopacity="1.0"
     gridtolerance="10000"
     guidetolerance="10"
     objecttolerance="10"
     inkscape:pageopacity="0.0"
     inkscape:pageshadow="2"
     inkscape:zoom="1.979899"
     inkscape:cx="229.1687"
     inkscape:cy="144.33382"
     inkscape:document-units="mm"
     inkscape:current-layer="layer1"
     inkscape:window-width="1280"
     inkscape:window-height="948"
     inkscape:window-x="257"
     inkscape:window-y="226"
     showguides="true"
     inkscape:guide-bbox="true"
     width="385px"
     height="370px"
     showgrid="false"
     inkscape:window-maximized="0"
     units="mm"
     inkscape:snap-global="true"
     inkscape:showpageshadow="false" />
  <metadata
     id="metadata7">
    <rdf:RDF>
      <cc:Work
         rdf:about="">
        <dc:format>image/svg+xml</dc:format>
        <dc:type
           rdf:resource="http://purl.org/dc/dcmitype/StillImage" />
        <dc:title />
      </cc:Work>
    </rdf:RDF>
  </metadata>
  <g
     inkscape:label="Layer 1"
     inkscape:groupmode="layer"
     id="layer1"
     transform="translate(-211.95846,-485.47855)">
    <g
       id="g3394"
       transform="matrix(0.2847464,0,0,0.2847464,220.43629,422.93827)">
      <g
         transform="matrix(0.6064442,0,0,0.6064442,737.12711,274.64598)"
         id="g13013">
        <path
           sodipodi:nodetypes="cccc"
           style="fill:#766730;fill-opacity:1;fill-rule:evenodd;stroke:none"
           d="M -388.40365,116.45585 -242.91892,321.59732 -498.0052,499.80874 -388.40365,116.45585 z"
           id="path2329"
           inkscape:connector-curvature="0" />
        <path
           style="fill:#68943b;fill-opacity:1;fill-rule:evenodd;stroke:none"
           d="M -784.88853,221.00664 -389.91888,115.95077 -498.51028,497.28336 -784.88853,221.00664 z"
           id="path3300"
           sodipodi:nodetypes="cccc"
           inkscape:connector-curvature="0" />
        <path
           sodipodi:nodetypes="cccc"
           style="fill:#8c6941;fill-opacity:1;fill-rule:evenodd;stroke:none"
           d="M -387.89858,113.42539 -330.82496,8.3695264 -242.77253,320.97268 -387.89858,113.42539 z"
           id="path4271"
           inkscape:connector-curvature="0" />
        <path
           style="fill:#8f824d;fill-opacity:1;fill-rule:evenodd;stroke:none"
           d="M -643.46717,-80.523898 -332.84526,6.8542976 -390.42396,113.93047 -643.46717,-80.523898 z"
           id="path4273"
           inkscape:connector-curvature="0" />
        <path
           style="fill:#447f49;fill-opacity:1;fill-rule:evenodd;stroke:none"
           d="m -784.88853,224.0371 3.78705,243.53266 281.58104,30.21867 -285.36809,-273.75133 z"
           id="path5244"
           sodipodi:nodetypes="cccc"
           inkscape:connector-curvature="0" />
        <path
           style="fill:#795650;fill-opacity:1;fill-rule:evenodd;stroke:none"
           d="M -243.2158,320.49444 -475.27677,513.95088 -495.47982,499.30367 -243.2158,320.49444 z"
           id="path6215"
           sodipodi:nodetypes="cccc"
           inkscape:connector-curvature="0" />
        <path
           style="fill:#629c38;fill-opacity:1;fill-rule:evenodd;stroke:none"
           d="M -643.46717,-76.483288 -785.3936,219.99648 -393.45441,114.43554 -643.46717,-76.483288 z"
           id="path7186"
           sodipodi:nodetypes="cccc"
           inkscape:connector-curvature="0" />
        <path
           style="fill:#4c9369;fill-opacity:1;fill-rule:evenodd;stroke:none"
           d="M -644.47732,-79.008669 -785.3936,217.4711 -850.54844,147.77058 -644.47732,-79.008669 z"
           id="path8157"
           inkscape:connector-curvature="0" />
        <path
           style="fill:#31785a;fill-opacity:1;fill-rule:evenodd;stroke:none"
           d="m -851.05352,150.29596 64.14469,70.2056 4.04061,245.46707 -68.1853,-315.67267 z"
           id="path9128"
           sodipodi:nodetypes="cccc"
           inkscape:connector-curvature="0" />
        <path
           style="fill:#485750;fill-opacity:1;fill-rule:evenodd;stroke:none"
           d="m -498.0052,499.30366 21.2132,15.15229 -304.56099,-42.4264 283.34779,27.27411 z"
           id="path10099"
           sodipodi:nodetypes="cccc"
           inkscape:connector-curvature="0" />
        <path
           style="opacity:0.33000004;fill:#000000;fill-rule:nonzero;stroke:none"
           d="m -640.9487,-78.994924 -6.5625,1 47.46875,115.65625 -247.96875,105.062504 2.5,6.0625 243.96875,-104.562504 -69.71875,270.218754 -97.96875,-97.46875 -12.125,4.03125 106.0625,100 -108.09375,139.40625 3.5625,9.09375 109.59375,-145.96875 194.46241,191.4218 1.5,-8.59375 -189.89991,-186.3593 269.6875,-70.21875 -85.21182,260.06891 2.89932,2.08734 5.5625,-4.0625 1,-5.03125 81.3125,-252.5625 141.30451,76.44004 3.03125,-8.0625 -142.80451,-72.90879 55.5625,-232.843754 -8.59375,9.59375 -51.53125,217.687504 -200,-199.500004 257.09375,-30.3125 -6.5625,-6.0624997 -254.5625,32.3437497 -44.96875,-115.65625 z m 44.96875,124.75 199.5,199.500004 -270.71875,71.21875 71.21875,-270.718754 z"
           id="path12039"
           sodipodi:nodetypes="ccccccccccccccccccccccccccccccccccccc"
           inkscape:connector-curvature="0" />
      </g>
      <path
         sodipodi:nodetypes="cccc"
         id="use3340"
         d="m 435.56781,576.86843 11.06747,8.83445 c 51.28761,-34.3317 96.1215,-76.85567 143.25888,-116.51971 L 435.56781,576.86843 z"
         style="fill:none;stroke:#39311e;stroke-width:4.53299999;stroke-linecap:butt;stroke-linejoin:round;stroke-miterlimit:4;stroke-opacity:1;stroke-dasharray:none"
         inkscape:connector-curvature="0" />
      <path
         style="fill:none;stroke:#39420c;stroke-width:4.53299999;stroke-linecap:butt;stroke-linejoin:round;stroke-miterlimit:4;stroke-opacity:1;stroke-dasharray:none"
         d="m 435.56781,576.86843 59.6389,-211.87984 c 0,0 4.12319,-20.76936 8.56058,-16.11513 3.44393,3.61222 86.37941,120.05717 86.37941,120.05717 l -154.57889,107.9378 z"
         id="path3334"
         sodipodi:nodetypes="ccscc"
         inkscape:connector-curvature="0" />
      <path
         id="path3330"
         d="m 534.93166,279.85108 -33.37883,65.62237 c 0,0 -59.45173,-46.21186 -63.81571,-49.65419 -3.91852,-3.09095 -90.12762,-68.5193 -90.12762,-68.5193 0,0 1.56401,-1.15867 8.67816,0.47534 6.66151,1.53005 178.70674,51.35963 178.644,52.07578 z"
         style="fill:none;stroke:#293003;stroke-width:4.53299999;stroke-linecap:butt;stroke-linejoin:round;stroke-miterlimit:4;stroke-opacity:1;stroke-dasharray:none"
         sodipodi:nodetypes="ccscsc"
         inkscape:connector-curvature="0" />
      <path
         sodipodi:nodetypes="ccscsc"
         style="fill:none;stroke:#0c411b;stroke-width:4.15732956;stroke-linecap:butt;stroke-linejoin:round;stroke-miterlimit:4;stroke-opacity:1;stroke-dasharray:none"
         d="m 221.69606,363.67824 39.14527,44.24701 c 0,0 32.82781,-70.39364 35.23749,-75.63728 2.16372,-4.70837 50.74845,-104.82056 50.74845,-104.82056 0,0 -1.22075,-1.49712 -6.66687,4.56337 -2.91059,3.23893 -118.49899,130.55657 -118.46434,131.64746 z"
         id="path3336"
         inkscape:connector-curvature="0" />
      <path
         sodipodi:nodetypes="ccscsc"
         style="fill:none;stroke:#3c671e;stroke-width:4.53299999;stroke-linecap:butt;stroke-linejoin:round;stroke-miterlimit:4;stroke-opacity:1;stroke-dasharray:none"
         d="m 500.60534,345.07896 -236.4944,62.38208 c 0,0 -2.25044,1.28597 -0.96446,-3.53641 1.28595,-4.82236 83.67472,-176.64873 83.67472,-176.64873 0,0 2.64002,1.69793 8.65612,5.83165 5.63334,3.87071 145.44951,111.3284 145.12802,111.97141 z"
         id="path3328"
         inkscape:connector-curvature="0" />
      <path
         style="fill:none;stroke:#333720;stroke-width:4.53299999;stroke-linecap:butt;stroke-linejoin:round;stroke-miterlimit:4;stroke-opacity:1;stroke-dasharray:none"
         d="m 434.8102,576.11082 11.82508,9.59206 -183.40106,-27.41336 171.57598,17.8213 z"
         id="path3344"
         sodipodi:nodetypes="cccc"
         inkscape:connector-curvature="0" />
      <path
         sodipodi:nodetypes="ccc"
         style="fill:none;stroke:#194428;stroke-width:4.15732956;stroke-linecap:butt;stroke-linejoin:round;stroke-miterlimit:4;stroke-opacity:1;stroke-dasharray:none"
         d="M 435.47231,576.16952 263.33225,557.52749 435.47231,576.16952 z"
         id="path3346"
         inkscape:transform-center-y="-101.61778"
         inkscape:transform-center-x="9.7622278"
         inkscape:connector-curvature="0" />
      <path
         sodipodi:nodetypes="ccscc"
         style="fill:none;stroke:#513e2a;stroke-width:4.53299999;stroke-linecap:butt;stroke-linejoin:round;stroke-miterlimit:4;stroke-opacity:1;stroke-dasharray:none"
         d="m 502.01285,344.95616 33.20874,-64.3624 c 0,0 21.02606,72.30456 22.53999,77.65264 1.3594,4.80217 32.27183,110.76679 32.27183,110.76679 L 502.01285,344.95616 z"
         id="path3332"
         inkscape:connector-curvature="0" />
      <path
         sodipodi:nodetypes="ccscsc"
         id="path2357"
         d="m 261.01944,408.25394 239.74022,-63.2648 c 0,0 1.11402,-2.42239 -0.55077,3.78895 -1.29207,4.82072 -63.97674,226.65128 -63.97674,226.65128 0,0 0.64297,3.85791 -3.8579,-1.28596 -4.50086,-5.14385 -171.6763,-165.24646 -171.35481,-165.88947 z"
         style="fill:none;stroke:#274111;stroke-width:4.53299999;stroke-linecap:butt;stroke-linejoin:round;stroke-miterlimit:4;stroke-opacity:1;stroke-dasharray:none"
         inkscape:connector-curvature="0" />
      <path
         inkscape:transform-center-x="9.7622278"
         inkscape:transform-center-y="-101.61778"
         id="path3338"
         d="m 221.1866,363.84809 40.89247,44.08377 c 0,0 -0.2139,35.50224 -0.81918,41.24122 -0.54349,5.15316 2.26062,108.89634 2.26062,108.89634 0,0 -1.81403,0.66401 -3.40254,-7.32764 -0.84896,-4.271 -39.51813,-185.97339 -38.93137,-186.89369 z"
         style="fill:none;stroke:#194428;stroke-width:4.15732956;stroke-linecap:butt;stroke-linejoin:round;stroke-miterlimit:4;stroke-opacity:1;stroke-dasharray:none"
         sodipodi:nodetypes="ccscsc"
         inkscape:connector-curvature="0" />
    </g>
  </g>
</svg>

<?xml version="1.0" encoding="UTF-8" standalone="no"?>
<!-- Created with Inkscape (http://www.inkscape.org/) -->
<svg
   xmlns:dc="http://purl.org/dc/elements/1.1/"
   xmlns:cc="http://web.resource.org/cc/"
   xmlns:rdf="http://www.w3.org/1999/02/22-rdf-syntax-ns#"
   xmlns:svg="http://www.w3.org/2000/svg"
   xmlns="http://www.w3.org/2000/svg"
   xmlns:sodipodi="http://sodipodi.sourceforge.net/DTD/sodipodi-0.dtd"
   xmlns:inkscape="http://www.inkscape.org/namespaces/inkscape"
   width="385"
   height="370"
   id="svg2"
   sodipodi:version="0.32"
   inkscape:version="0.45"
   sodipodi:docname="icosahedron.svg"
   sodipodi:docbase="/home/david/Inkscape Files/Wiki"
   inkscape:output_extension="org.inkscape.output.svg.inkscape"
   sodipodi:modified="true"
   version="1.0">
  <defs
     id="defs4" />
  <sodipodi:namedview
     id="base"
     pagecolor="#ffffff"
     bordercolor="#666666"
     borderopacity="1.0"
     gridtolerance="10000"
     guidetolerance="10"
     objecttolerance="10"
     inkscape:pageopacity="0.0"
     inkscape:pageshadow="2"
     inkscape:zoom="0.98994948"
     inkscape:cx="442.36549"
     inkscape:cy="285.75518"
     inkscape:document-units="px"
     inkscape:current-layer="layer1"
     inkscape:window-width="1280"
     inkscape:window-height="948"
     inkscape:window-x="0"
     inkscape:window-y="24"
     showguides="true"
     inkscape:guide-bbox="true"
     width="385px"
     height="370px" />
  <metadata
     id="metadata7">
    <rdf:RDF>
      <cc:Work
         rdf:about="">
        <dc:format>image/svg+xml</dc:format>
        <dc:type
           rdf:resource="http://purl.org/dc/dcmitype/StillImage" />
      </cc:Work>
    </rdf:RDF>
  </metadata>
  <g
     inkscape:label="Layer 1"
     inkscape:groupmode="layer"
     id="layer1"
     transform="translate(-211.95846,-221.7778)">
    <g
       id="g3394">
      <g
         transform="matrix(0.6064442,0,0,0.6064442,737.12711,274.64598)"
         id="g13013">
        <path
           sodipodi:nodetypes="cccc"
           style="fill:#766730;fill-opacity:1;fill-rule:evenodd;stroke:none;stroke-width:1px;stroke-linecap:butt;stroke-linejoin:miter;stroke-opacity:1"
           d="M -388.40365,116.45585 L -242.91892,321.59732 L -498.0052,499.80874 L -388.40365,116.45585 z "
           id="path2329" />
        <path
           style="fill:#68943b;fill-opacity:1;fill-rule:evenodd;stroke:none;stroke-width:1px;stroke-linecap:butt;stroke-linejoin:miter;stroke-opacity:1"
           d="M -784.88853,221.00664 L -389.91888,115.95077 L -498.51028,497.28336 L -784.88853,221.00664 z "
           id="path3300"
           sodipodi:nodetypes="cccc" />
        <path
           sodipodi:nodetypes="cccc"
           style="fill:#8c6941;fill-opacity:1;fill-rule:evenodd;stroke:none;stroke-width:1px;stroke-linecap:butt;stroke-linejoin:miter;stroke-opacity:1"
           d="M -387.89858,113.42539 L -330.82496,8.3695264 L -242.77253,320.97268 L -387.89858,113.42539 z "
           id="path4271" />
        <path
           style="fill:#8f824d;fill-opacity:1;fill-rule:evenodd;stroke:none;stroke-width:1px;stroke-linecap:butt;stroke-linejoin:miter;stroke-opacity:1"
           d="M -643.46717,-80.523898 L -332.84526,6.8542976 L -390.42396,113.93047 L -643.46717,-80.523898 z "
           id="path4273" />
        <path
           style="fill:#447f49;fill-opacity:1;fill-rule:evenodd;stroke:none;stroke-width:1px;stroke-linecap:butt;stroke-linejoin:miter;stroke-opacity:1"
           d="M -784.88853,224.0371 L -781.10148,467.56976 L -499.52044,497.78843 L -784.88853,224.0371 z "
           id="path5244"
           sodipodi:nodetypes="cccc" />
        <path
           style="fill:#795650;fill-opacity:1;fill-rule:evenodd;stroke:none;stroke-width:1px;stroke-linecap:butt;stroke-linejoin:miter;stroke-opacity:1"
           d="M -243.2158,320.49444 L -475.27677,513.95088 L -495.47982,499.30367 L -243.2158,320.49444 z "
           id="path6215"
           sodipodi:nodetypes="cccc" />
        <path
           style="fill:#629c38;fill-opacity:1;fill-rule:evenodd;stroke:none;stroke-width:1px;stroke-linecap:butt;stroke-linejoin:miter;stroke-opacity:1"
           d="M -643.46717,-76.483288 L -785.3936,219.99648 L -393.45441,114.43554 L -643.46717,-76.483288 z "
           id="path7186"
           sodipodi:nodetypes="cccc" />
        <path
           style="fill:#4c9369;fill-opacity:1;fill-rule:evenodd;stroke:none;stroke-width:1px;stroke-linecap:butt;stroke-linejoin:miter;stroke-opacity:1"
           d="M -644.47732,-79.008669 L -785.3936,217.4711 L -850.54844,147.77058 L -644.47732,-79.008669 z "
           id="path8157" />
        <path
           style="fill:#31785a;fill-opacity:1;fill-rule:evenodd;stroke:none;stroke-width:1px;stroke-linecap:butt;stroke-linejoin:miter;stroke-opacity:1"
           d="M -851.05352,150.29596 L -786.90883,220.50156 L -782.86822,465.96863 L -851.05352,150.29596 z "
           id="path9128"
           sodipodi:nodetypes="cccc" />
        <path
           style="fill:#485750;fill-opacity:1;fill-rule:evenodd;stroke:none;stroke-width:1px;stroke-linecap:butt;stroke-linejoin:miter;stroke-opacity:1"
           d="M -498.0052,499.30366 L -476.792,514.45595 L -781.35299,472.02955 L -498.0052,499.30366 z "
           id="path10099"
           sodipodi:nodetypes="cccc" />
        <path
           style="opacity:0.33000004;fill:#000000;fill-rule:nonzero;stroke:none;stroke-width:1px;stroke-linecap:butt;stroke-linejoin:miter;stroke-opacity:1"
           d="M -640.9487,-78.994924 L -647.5112,-77.994924 L -600.04245,37.661326 L -848.0112,142.72383 L -845.5112,148.78633 L -601.54245,44.223826 L -671.2612,314.44258 L -769.22995,216.97383 L -781.35495,221.00508 L -675.29245,321.00508 L -783.3862,460.41133 L -779.8237,469.50508 L -670.22995,323.53633 L -475.76754,514.95813 L -474.26754,506.36438 L -664.16745,320.00508 L -394.47995,249.78633 L -479.69177,509.85524 L -476.79245,511.94258 L -471.22995,507.88008 L -470.22995,502.84883 L -388.91745,250.28633 L -247.61294,326.72637 L -244.58169,318.66387 L -387.3862,245.75508 L -331.8237,12.911326 L -340.41745,22.505076 L -391.9487,240.19258 L -591.9487,40.692576 L -334.85495,10.380076 L -341.41745,4.3175763 L -595.97995,36.661326 L -640.9487,-78.994924 z M -595.97995,45.755076 L -396.47995,245.25508 L -667.1987,316.47383 L -595.97995,45.755076 z "
           id="path12039"
           sodipodi:nodetypes="ccccccccccccccccccccccccccccccccccccc" />
      </g>
      <path
         sodipodi:nodetypes="cccc"
         id="use3340"
         d="M 435.56781,576.86843 L 446.63528,585.70288 C 497.92289,551.37118 542.75678,508.84721 589.89416,469.18317 L 435.56781,576.86843 z "
         style="fill:none;fill-opacity:1;fill-rule:evenodd;stroke:#39311e;stroke-width:4.53299999;stroke-linecap:butt;stroke-linejoin:round;stroke-miterlimit:4;stroke-dasharray:none;stroke-opacity:1" />
      <path
         style="fill:none;fill-opacity:1;fill-rule:evenodd;stroke:#39420c;stroke-width:4.53299999;stroke-linecap:butt;stroke-linejoin:round;stroke-miterlimit:4;stroke-dasharray:none;stroke-opacity:1"
         d="M 435.56781,576.86843 L 495.20671,364.98859 C 495.20671,364.98859 499.3299,344.21923 503.76729,348.87346 C 507.21122,352.48568 590.1467,468.93063 590.1467,468.93063 L 435.56781,576.86843 z "
         id="path3334"
         sodipodi:nodetypes="ccscc" />
      <path
         id="path3330"
         d="M 534.93166,279.85108 L 501.55283,345.47345 C 501.55283,345.47345 442.1011,299.26159 437.73712,295.81926 C 433.8186,292.72831 347.6095,227.29996 347.6095,227.29996 C 347.6095,227.29996 349.17351,226.14129 356.28766,227.7753 C 362.94917,229.30535 534.9944,279.13493 534.93166,279.85108 z "
         style="fill:none;fill-opacity:1;fill-rule:evenodd;stroke:#293003;stroke-width:4.53299999;stroke-linecap:butt;stroke-linejoin:round;stroke-miterlimit:4;stroke-dasharray:none;stroke-opacity:1"
         sodipodi:nodetypes="ccscsc" />
      <path
         sodipodi:nodetypes="ccscsc"
         style="fill:none;fill-opacity:1;fill-rule:evenodd;stroke:#0c411b;stroke-width:4.15732956;stroke-linecap:butt;stroke-linejoin:round;stroke-miterlimit:4;stroke-dasharray:none;stroke-opacity:1"
         d="M 221.69606,363.67824 L 260.84133,407.92525 C 260.84133,407.92525 293.66914,337.53161 296.07882,332.28797 C 298.24254,327.5796 346.82727,227.46741 346.82727,227.46741 C 346.82727,227.46741 345.60652,225.97029 340.1604,232.03078 C 337.24981,235.26971 221.66141,362.58735 221.69606,363.67824 z "
         id="path3336" />
      <path
         sodipodi:nodetypes="ccscsc"
         style="fill:none;fill-opacity:1;fill-rule:evenodd;stroke:#3c671e;stroke-width:4.53299999;stroke-linecap:butt;stroke-linejoin:round;stroke-miterlimit:4;stroke-dasharray:none;stroke-opacity:1"
         d="M 500.60534,345.07896 L 264.11094,407.46104 C 264.11094,407.46104 261.8605,408.74701 263.14648,403.92463 C 264.43243,399.10227 346.8212,227.2759 346.8212,227.2759 C 346.8212,227.2759 349.46122,228.97383 355.47732,233.10755 C 361.11066,236.97826 500.92683,344.43595 500.60534,345.07896 z "
         id="path3328" />
      <path
         style="fill:none;fill-opacity:1;fill-rule:evenodd;stroke:#333720;stroke-width:4.53299999;stroke-linecap:butt;stroke-linejoin:round;stroke-miterlimit:4;stroke-dasharray:none;stroke-opacity:1"
         d="M 434.8102,576.11082 L 446.63528,585.70288 L 263.23422,558.28952 L 434.8102,576.11082 z "
         id="path3344"
         sodipodi:nodetypes="cccc" />
      <path
         sodipodi:nodetypes="ccc"
         style="fill:none;fill-opacity:1;fill-rule:evenodd;stroke:#194428;stroke-width:4.15732956;stroke-linecap:butt;stroke-linejoin:round;stroke-miterlimit:4;stroke-dasharray:none;stroke-opacity:1"
         d="M 435.47231,576.16952 L 263.33225,557.52749 L 435.47231,576.16952 z "
         id="path3346"
         inkscape:transform-center-y="-101.61778"
         inkscape:transform-center-x="9.7622278" />
      <path
         sodipodi:nodetypes="ccscc"
         style="fill:none;fill-opacity:1;fill-rule:evenodd;stroke:#513e2a;stroke-width:4.53299999;stroke-linecap:butt;stroke-linejoin:round;stroke-miterlimit:4;stroke-dasharray:none;stroke-opacity:1"
         d="M 502.01285,344.95616 L 535.22159,280.59376 C 535.22159,280.59376 556.24765,352.89832 557.76158,358.2464 C 559.12098,363.04857 590.03341,469.01319 590.03341,469.01319 L 502.01285,344.95616 z "
         id="path3332" />
      <path
         sodipodi:nodetypes="ccscsc"
         id="path2357"
         d="M 261.01944,408.25394 L 500.75966,344.98914 C 500.75966,344.98914 501.87368,342.56675 500.20889,348.77809 C 498.91682,353.59881 436.23215,575.42937 436.23215,575.42937 C 436.23215,575.42937 436.87512,579.28728 432.37425,574.14341 C 427.87339,568.99956 260.69795,408.89695 261.01944,408.25394 z "
         style="fill:none;fill-opacity:1;fill-rule:evenodd;stroke:#274111;stroke-width:4.53299999;stroke-linecap:butt;stroke-linejoin:round;stroke-miterlimit:4;stroke-dasharray:none;stroke-opacity:1" />
      <path
         inkscape:transform-center-x="9.7622278"
         inkscape:transform-center-y="-101.61778"
         id="path3338"
         d="M 221.1866,363.84809 L 262.07907,407.93186 C 262.07907,407.93186 261.86517,443.4341 261.25989,449.17308 C 260.7164,454.32624 263.52051,558.06942 263.52051,558.06942 C 263.52051,558.06942 261.70648,558.73343 260.11797,550.74178 C 259.26901,546.47078 220.59984,364.76839 221.1866,363.84809 z "
         style="fill:none;fill-opacity:1;fill-rule:evenodd;stroke:#194428;stroke-width:4.15732956;stroke-linecap:butt;stroke-linejoin:round;stroke-miterlimit:4;stroke-dasharray:none;stroke-opacity:1"
         sodipodi:nodetypes="ccscsc" />
    </g>
  </g>
</svg>
